packages/core/src/svgs/tokens/mono/ELF.svg

<svg width="24" height="24" viewBox="0 0 24 24" fill="none" xmlns="http://www.w3.org/2000/svg">
<path d="M12.1731 2.16595C13.3821 1.88722 14.678 2.94891 14.5734 4.20104C14.626 5.33164 13.5035 6.32256 12.3818 6.17474C12.1111 6.15151 11.848 6.07319 11.6088 5.94458C11.3695 5.81596 11.1592 5.63977 10.9906 5.42684C10.7602 5.14 10.6119 4.7961 10.5613 4.4317C10.5109 4.06728 10.56 3.696 10.7037 3.35731C10.9467 2.74847 11.538 2.29623 12.1819 2.16595H12.1731ZM4.28524 4.25302C5.0644 4.05507 5.89005 4.16878 6.58669 4.56997C7.28333 4.97116 7.79607 5.62821 8.01591 6.40148C8.28526 7.09675 8.60722 7.8102 9.11205 8.37518C9.51163 8.81052 10.138 8.8625 10.6861 8.89695C11.0514 8.92326 11.3989 8.81866 11.7297 8.68836C12.4951 8.45348 13.3558 9.14937 13.2687 9.94107C13.2687 10.602 12.6422 11.1581 11.9908 11.1062C11.5556 11.1062 11.1553 10.8193 10.9467 10.4453C10.5552 9.86288 10.0509 9.22769 9.30307 9.1406C8.62182 9.02381 7.92104 9.13708 7.31125 9.46256C6.92039 9.64482 6.57213 9.92353 6.15497 10.0714C5.66334 10.2592 5.13175 10.318 4.61096 10.2419C4.09018 10.1659 3.59762 9.95744 3.18032 9.63663C2.56935 9.1608 2.16207 8.4705 2.04095 7.70559C1.92017 6.97659 2.06866 6.22855 2.45874 5.60098C2.88 4.94132 3.53071 4.46109 4.28524 4.25302ZM17.1391 7.90603C17.673 7.80808 18.2209 7.8163 18.7516 7.93026C19.2824 8.0442 19.7855 8.26164 20.2321 8.57012C20.6788 8.87861 21.0602 9.27213 21.3547 9.72813C21.6491 10.1841 21.8509 10.6936 21.9483 11.2277C22.0611 12.0369 22.0009 12.8807 21.6526 13.6285C21.4085 14.1811 21.0461 14.6734 20.5911 15.0708C20.136 15.468 19.5993 15.7608 19.0189 15.9283C18.4385 16.0957 17.8284 16.1339 17.2316 16.0399C16.6349 15.9461 16.0659 15.7225 15.565 15.3849C14.8815 14.9262 14.3506 14.2739 14.0405 13.5115C13.7304 12.7491 13.6549 11.9114 13.824 11.1059C13.9933 10.3003 14.3992 9.5637 14.9898 8.99052C15.5804 8.41726 16.3288 8.0335 17.1391 7.88849V7.90603ZM11.7121 12.6715C11.9908 12.6277 12.2859 12.6195 12.5471 12.7592C12.77 12.8709 12.955 13.0461 13.0787 13.2626C13.2023 13.4792 13.2593 13.7275 13.2423 13.9762C13.1823 14.6545 12.512 15.1938 11.8343 15.0806C11.164 14.9327 10.4162 14.7674 9.76418 15.0718C9.34282 15.3213 8.97931 15.6573 8.6975 16.0576C8.4157 16.4579 8.22203 16.9136 8.1293 17.3943C8.02659 17.9117 7.79196 18.3937 7.44815 18.7937C7.10432 19.1938 6.66297 19.4981 6.16689 19.6772C5.67082 19.8566 5.13685 19.9045 4.61677 19.8167C4.09669 19.7288 3.60814 19.508 3.19849 19.1758C2.78185 18.8386 2.46073 18.3982 2.26708 17.8985C2.00139 17.2027 1.9969 16.4342 2.25441 15.7355C2.51193 15.0366 3.01401 14.4547 3.66764 14.0977C4.09194 13.8685 4.56439 13.7428 5.04648 13.7308C5.52858 13.7188 6.00669 13.821 6.44184 14.0288C7.1985 14.4109 7.99837 14.7329 8.8421 14.8112C9.45098 14.855 9.92948 14.4197 10.3729 14.0633C10.7732 13.7501 10.8516 13.1845 11.2599 12.8807C11.3901 12.776 11.5468 12.7066 11.7121 12.6715ZM12.3824 17.829C13.5123 17.69 14.626 18.6727 14.5734 19.8121C14.5878 20.2882 14.4322 20.7537 14.134 21.1252C13.836 21.4966 13.4152 21.7495 12.9474 21.8384C12.1387 22.0126 11.2336 21.6123 10.8253 20.8902C10.5699 20.4552 10.4844 19.9412 10.5851 19.447C10.6858 18.9529 10.9657 18.5134 11.3707 18.2129C11.6665 17.9953 12.0167 17.8626 12.3824 17.829Z" fill="white"/>
</svg>

<svg xmlns="http://www.w3.org/2000/svg" width="24" height="24" fill="none" viewBox="0 0 24 24">
    <path fill="#fff" d="M12.173 2.166c1.21-.279 2.505.783 2.4 2.035.053 1.13-1.07 2.122-2.191 1.974a2 2 0 0 1-1.391-.748 2.04 2.04 0 0 1-.287-2.07c.243-.609.834-1.06 1.478-1.191zM4.285 4.253a3.09 3.09 0 0 1 3.73 2.148c.27.696.592 1.41 1.097 1.974.4.436 1.026.488 1.574.522.365.026.713-.078 1.044-.209.765-.235 1.626.461 1.539 1.253 0 .661-.627 1.217-1.278 1.165-.435 0-.836-.287-1.044-.66-.392-.583-.896-1.218-1.644-1.305a3.1 3.1 0 0 0-1.992.322c-.39.182-.739.46-1.156.608a3.08 3.08 0 0 1-2.975-.434 3.05 3.05 0 0 1-1.14-1.931A3.04 3.04 0 0 1 2.46 5.6a3.17 3.17 0 0 1 1.826-1.348M17.14 7.906a4.13 4.13 0 0 1 4.81 3.322c.112.809.052 1.653-.296 2.4a4.132 4.132 0 0 1-6.088 1.757 4.13 4.13 0 0 1 1.574-7.497zm-5.427 4.766c.279-.044.574-.053.835.087a1.265 1.265 0 0 1 .695 1.217c-.06.678-.73 1.218-1.408 1.105-.67-.148-1.418-.314-2.07-.01a3.46 3.46 0 0 0-1.635 2.323 3.06 3.06 0 0 1-4.93 1.782 3.07 3.07 0 0 1-.932-1.277 3.08 3.08 0 0 1 1.4-3.801 3.06 3.06 0 0 1 2.775-.07c.757.383 1.556.705 2.4.783.609.044 1.087-.391 1.53-.748.401-.313.48-.879.888-1.182.13-.105.287-.174.452-.21m.67 5.157c1.13-.139 2.244.844 2.191 1.983a2 2 0 0 1-1.626 2.026c-.808.175-1.713-.226-2.122-.948a2.044 2.044 0 0 1 .546-2.677 2 2 0 0 1 1.011-.384"/>
</svg>
